X: 11291
T: the Bottom of the Punch Bowl
%R: march, reel
B: James Oswald "The Caledonian Pocket Companion" v.1 b.1 p.29 #1 (top 8 staffs continued from p.28)
Z: 2020 John Chambers <jc:trillian.mit.edu>
M: C|
L: 1/8
K: D
"_Brisk"FE |\
D2D2 d3e | d2D2 FGAF | E2E2 efge | e2E2 FGAF |\
D2D2 d3e | fedB d3A | B3F A3E | F2(ED) D2 :|
|: (de) |\
fedB ABde | fedB d3A | B3d ABde | f2e2 e2(de) |\
fedB ABde | fedB d3A | BdBF ABAE | F2(ED) D2 :|
